icons/diabetes_measure_fill.svg

<svg width="48" height="48" viewBox="0 0 48 48" fill="none" xmlns="http://www.w3.org/2000/svg">
<path d="M23.9672 22.147C26.2072 22.1452 27.9659 20.4676 27.9641 18.3342C27.9625 16.3533 23.9585 11.4804 23.9585 11.4804C23.9585 11.4804 19.9624 16.2075 19.9641 18.3408C19.9659 20.4741 21.7272 22.1489 23.9672 22.147Z" fill="black"/>
<path d="M23.982 40.0825C25.0866 40.0816 25.9813 39.1854 25.9804 38.0808C25.9795 36.9763 25.0833 36.0816 23.9788 36.0825C22.8742 36.0834 21.9795 36.9795 21.9804 38.0841C21.9813 39.1887 22.8775 40.0834 23.982 40.0825Z" fill="black"/>
<path fill-rule="evenodd" clip-rule="evenodd" d="M12.9524 4.09151C11.2955 4.09286 9.95348 5.43711 9.95484 7.09396L9.97531 32.094C9.97667 33.7508 11.3209 35.0929 12.9778 35.0915L17.7278 35.0876C17.8033 35.0875 17.8772 35.0808 17.949 35.0679C17.9587 35.0662 17.9683 35.0643 17.9779 35.0624L17.9853 44.0874L29.9853 44.0776L29.9779 35.0526C30.0586 35.0689 30.1422 35.0774 30.2278 35.0774L34.9778 35.0735C36.6346 35.0721 37.9767 33.7279 37.9753 32.071L37.9548 7.07103C37.9535 5.41418 36.6092 4.07213 34.9524 4.07349L12.9524 4.09151ZM32.9556 8.0751L14.9556 8.08984L14.9704 26.0898L32.9704 26.0751L32.9556 8.0751ZM15.9734 29.589C15.9729 29.0367 16.4203 28.5886 16.9726 28.5882L20.9724 28.5849C21.5247 28.5845 21.9728 29.0318 21.9732 29.5841C21.9737 30.1364 21.5264 30.5845 20.9741 30.5849L16.9742 30.5882C16.4219 30.5886 15.9738 30.1413 15.9734 29.589ZM26.9726 28.58C26.4203 28.5805 25.9729 29.0285 25.9734 29.5808C25.9738 30.1331 26.4219 30.5805 26.9742 30.58L30.9741 30.5767C31.5264 30.5763 31.9737 30.1282 31.9732 29.5759C31.9728 29.0236 31.5247 28.5763 30.9724 28.5767L26.9726 28.58ZM27.9762 33.0792L19.9762 33.0858L19.9836 42.0858L27.9836 42.0792L27.9762 33.0792Z" fill="black"/>
</svg>

<svg
  xmlns="http://www.w3.org/2000/svg"
  width="24"
  height="24"
  viewBox="0 0 24 24"
  fill="none"
  stroke="currentColor"
  stroke-width="2"
  stroke-linecap="round"
  stroke-linejoin="round"
>
  <path d="M23.967 22.147c2.24-.002 3.999-1.68 3.997-3.813-.002-1.98-4.005-6.854-4.005-6.854s-3.997 4.727-3.995 6.86 1.763 3.809 4.003 3.807" />
  <path d="M23.982 40.083a2 2 0 1 0-.003-4 2 2 0 0 0 .003 4" />
  <path
    fill-rule="evenodd"
    d="M12.952 4.092a3 3 0 0 0-2.997 3.002l.02 25a3 3 0 0 0 3.003 2.998l4.75-.004a1.3 1.3 0 0 0 .25-.026l.007 9.025 12-.01-.007-9.024q.12.024.25.024l4.75-.003a3 3 0 0 0 2.997-3.003l-.02-25a3 3 0 0 0-3.003-2.998zm20.004 3.983-18 .015.014 18 18-.015zM15.973 29.59a1 1 0 0 1 1-1l4-.004a1 1 0 0 1 .001 2l-4 .003a1 1 0 0 1-1-.999m11-1.009a1 1 0 1 0 .001 2l4-.003a1 1 0 1 0-.002-2zm1.003 4.5-8 .006.008 9 8-.007z"
    clip-rule="evenodd"
  />
</svg>
